X: 18867
T: In Full Swing
R: polka
M: 2/4
K: Dmajor
|:dA Bd|AF EA|~D2 DD|zB AF|
~A2 EF|ED zF|AF Bg|~f2 ef|
dA Bd|AF EA|~D2 DD|zB AF|
~E2 FA|BA zF|EF Ad|~B2 AB:|
|:~d2 AB|dF zA|B/c/d ef|~a2 f/e/d|
~e2 df|eA zA|B/c/d ef|~g2 fe|
~d2 AB|dF zA|B/c/d ef|~a2 zf/a/|
bf ab|fe ~d2|B/c/d ef|zg fe:|

